X:3
T:Polska fran Rattvik
R:polska J
Z:2000 Brian Wilson 
M:3/4
L:1/8
Q:1/4=110
K:D
P:A
|: A2 d2 e>f | (3g2f2d2 B2- | B2 gf e>d | cd ec A2- |
|  A2 d2 e>f | (3g2f2d2 B2- | B2 gf e>d | cB/c/ d4 :|
P:B
| d>f ag f>e | d>g ba g>f | e>f g/a/g/e/ f>d | cd ec A2- |
| d>f ag f>e | d>g ba g>f | e>f g/a/g/e/ f>d | cB/c/ d4 :|
